X:15026
T:Oats and Beans and Barley Grow
R:Jig
C:Trad.
O:England; East Anglia
N:As at Kimbolton primary in 1960s
Z:Paul Hardy's Session Tunebook 2022 (see www.paulhardy.net). Creative Commons cc by-nc-sa licenced.
M:6/8
L:1/8
Q:3/8=100
K:G
"D"d2 d "G"B2 G|"C"c2 "D"e d3|"D"d2 d "G"B2 G|"C"c2 e "D"d2 d|"G"g2 g "D"f2 f|"C"eee "D"d2 d|"C"c2 c "G"B2 B|"D7"A2 A "G"G3:|
"D"d2 d "G"B2 G|"D7"A3 "G"G3|"D"d2 d "G"B2 G|"D7"A3 "G"G3|"C"cc e "D"d2 B|"C"c2 e "D"d2 B|"D"d2 d "G"B2 G|"D7"A3 "G"G3||
[K:D]"D"A2 A FFD|"G"G2 B "D"A2 A|A2 A F2 D|"G"G2 B "D"A2 A|:"D"d2 d "A"c2 c|"G"B2B "D"A2 A|"G"G2 G "D"F2 F|"A7"E2 E "D"D3:|

